src/lib/packages/icons/src/assets/line/play-circle.svg

<svg width="24" height="24" viewBox="0 0 24 24" fill="none" xmlns="http://www.w3.org/2000/svg">
<path d="M10.283 16.752C9.93296 16.752 9.58301 16.662 9.26001 16.481C8.59301 16.107 8.19495 15.4281 8.19495 14.6641V9.33594C8.19495 8.57194 8.59301 7.89304 9.26001 7.51904C9.93101 7.14404 10.719 7.15906 11.373 7.56006L15.8521 10.3C16.4491 10.666 16.806 11.301 16.806 12.001C16.806 12.701 16.4491 13.3359 15.8521 13.7019L11.373 16.4419C11.034 16.6479 10.659 16.752 10.283 16.752ZM10.285 8.75C10.153 8.75 10.047 8.79688 9.99304 8.82788C9.90304 8.87788 9.69397 9.02894 9.69397 9.33594V14.6641C9.69397 14.9721 9.90304 15.1221 9.99304 15.1721C10.084 15.2231 10.323 15.3249 10.59 15.1609L15.069 12.4209C15.283 12.2899 15.306 12.083 15.306 12C15.306 11.917 15.283 11.7101 15.069 11.5801L10.59 8.84009C10.481 8.77209 10.377 8.75 10.285 8.75ZM12 22.75C6.072 22.75 1.25 17.928 1.25 12C1.25 6.072 6.072 1.25 12 1.25C17.928 1.25 22.75 6.072 22.75 12C22.75 17.928 17.928 22.75 12 22.75ZM12 2.75C6.899 2.75 2.75 6.899 2.75 12C2.75 17.101 6.899 21.25 12 21.25C17.101 21.25 21.25 17.101 21.25 12C21.25 6.899 17.101 2.75 12 2.75Z" fill="currentColor"/>
</svg>

<svg xmlns="http://www.w3.org/2000/svg" width="24" height="24" fill="none"><path fill="currentColor" d="M10.283 16.752c-.35 0-.7-.09-1.023-.271a2.058 2.058 0 0 1-1.065-1.817V9.336c0-.764.398-1.443 1.065-1.817a2.064 2.064 0 0 1 2.113.041l4.48 2.74c.596.366.953 1.001.953 1.701 0 .7-.357 1.335-.954 1.7l-4.479 2.74a2.086 2.086 0 0 1-1.09.311Zm.002-8.002a.6.6 0 0 0-.292.078.57.57 0 0 0-.299.508v5.328a.57.57 0 0 0 .299.508c.091.051.33.153.597-.011l4.479-2.74a.486.486 0 0 0 .237-.421.484.484 0 0 0-.237-.42L10.59 8.84a.566.566 0 0 0-.305-.09Zm1.715 14C6.072 22.75 1.25 17.928 1.25 12S6.072 1.25 12 1.25 22.75 6.072 22.75 12 17.928 22.75 12 22.75Zm0-20c-5.101 0-9.25 4.149-9.25 9.25s4.149 9.25 9.25 9.25 9.25-4.149 9.25-9.25S17.101 2.75 12 2.75Z"/></svg>
